32x32/apps/appimagekit-pulse-sms.svg

<svg xmlns="http://www.w3.org/2000/svg" width="32" height="32" version="1">
 <rect style="opacity:0.2" width="28" height="28" x="-31" y="-30" rx="1.4" ry="1.4" transform="matrix(0,-1,-1,0,0,0)"/>
 <rect style="fill:#1775d2" width="28" height="28" x="-30" y="-30" rx="1.4" ry="1.4" transform="matrix(0,-1,-1,0,0,0)"/>
 <path style="opacity:0.15" d="M 3.4,2 C 2.6244,2 2,2.6244 2,3.4 v 25.2 c 0,0.3878 0.1557391,0.738161 0.4087891,0.991211 L 29.591211,2.4087891 C 29.338161,2.1557391 28.9878,2 28.6,2 Z"/>
 <path style="opacity:0.2" d="M 9.4550781,9 C 8.6492599,9 8,9.6820027 8,10.529297 V 17.726562 20.470703 25 l 3,-3 H 22.544922 C 23.35074,22 24,21.317997 24,20.470703 V 10.529297 C 24,9.6820027 23.35074,9 22.544922,9 Z"/>
 <rect style="fill:#f4f4f7" width="16" height="13" x="8" y="8" rx="1.455" ry="1.529"/>
 <path style="fill:#f4f4f7" d="M 7.9999996,16.727272 H 15.272727 L 7.9999996,24 Z"/>
 <path style="fill:#b7b7b7" d="M 11 11 L 11 13 L 19 13 L 21 11 L 11 11 z M 11 14 L 11 16 L 16 16 L 18 14 L 11 14 z M 11 17 L 11 19 L 13 19 L 15 17 L 11 17 z"/>
 <path style="fill:#f4f4f7;opacity:0.1" d="M 3.4003906 2 C 2.6247906 2 2 2.6247906 2 3.4003906 L 2 4.4003906 C 2 3.6247906 2.6247906 3 3.4003906 3 L 28.599609 3 C 29.375209 3 30 3.6247906 30 4.4003906 L 30 3.4003906 C 30 2.6247906 29.375209 2 28.599609 2 L 3.4003906 2 z"/>
 <path style="fill:#f4f4f7;opacity:0.1" d="M 29.591797 2.4082031 L 29.589844 2.4101562 C 29.652777 2.4730898 29.711679 2.5412275 29.761719 2.6152344 C 29.711588 2.540652 29.655059 2.4714656 29.591797 2.4082031 z M 28.951172 3.0488281 L 22.9375 9.0625 C 23.175832 9.1327148 23.390905 9.2608395 23.5625 9.4375 L 29.589844 3.4101562 C 29.416309 3.2366213 29.196739 3.1121593 28.951172 3.0488281 z M 8 24 L 2.4082031 29.591797 C 2.5815745 29.765168 2.8030675 29.888119 3.0488281 29.951172 L 8 25 L 8 24 z"/>
</svg>

<svg xmlns="http://www.w3.org/2000/svg" width="32" height="32" version="1"><rect style="opacity:.2" width="28" height="28" x="-31" y="-30" rx="1.4" ry="1.4" transform="matrix(0 -1 -1 0 0 0)"/><rect style="fill:#1775d2" width="28" height="28" x="-30" y="-30" rx="1.4" ry="1.4" transform="matrix(0 -1 -1 0 0 0)"/><path style="opacity:.15" d="M3.4 2C2.624 2 2 2.624 2 3.4v25.2c0 .388.156.738.409.991L29.59 2.41A1.396 1.396 0 0 0 28.6 2z"/><path style="opacity:.2" d="M9.455 9C8.65 9 8 9.682 8 10.53V25l3-3h11.545C23.35 22 24 21.318 24 20.47v-9.94C24 9.681 23.35 9 22.545 9z"/><rect style="fill:#f4f4f7" width="16" height="13" x="8" y="8" rx="1.455" ry="1.529"/><path style="fill:#f4f4f7" d="M8 16.727h7.273L8 24z"/><path style="fill:#b7b7b7" d="M11 11v2h8l2-2H11zm0 3v2h5l2-2h-7zm0 3v2h2l2-2h-4z"/><path style="fill:#f4f4f7;opacity:.1" d="M3.4 2C2.625 2 2 2.625 2 3.4v1C2 3.625 2.625 3 3.4 3h25.2c.775 0 1.4.625 1.4 1.4v-1c0-.775-.625-1.4-1.4-1.4H3.4z"/><path style="fill:#f4f4f7;opacity:.1" d="m29.592 2.408-.002.002c.063.063.122.131.172.205a1.383 1.383 0 0 0-.17-.207zm-.64.64-6.015 6.014c.239.07.454.199.625.376L29.59 3.41a1.39 1.39 0 0 0-.639-.361zM8 24l-5.592 5.592c.174.173.395.296.64.36L8 25v-1z"/></svg>
